public_html/images/more.svg

<?xml version="1.0" encoding="UTF-8" standalone="no"?>
<svg width="23px" height="23px" viewBox="0 0 23 23" version="1.1" xmlns="http://www.w3.org/2000/svg" xmlns:xlink="http://www.w3.org/1999/xlink" xmlns:sketch="http://www.bohemiancoding.com/sketch/ns">
    <!-- Generator: Sketch 3.3.3 (12081) - http://www.bohemiancoding.com/sketch -->
    <title>Untitled 5</title>
    <desc>Created with Sketch.</desc>
    <defs></defs>
    <g id="Page-1" stroke="none" stroke-width="1" fill="none" fill-rule="evenodd" sketch:type="MSPage">
        <path d="M14.5542358,10.5677674 L9.77489496,5.78842658 C9.48751554,5.50104716 9.02033976,5.50104716 8.73296034,5.78842658 C8.44558092,6.075806 8.44558092,6.54298178 8.73296034,6.8303612 L12.9935445,11.0909453 L8.73296034,15.3515295 C8.44558092,15.6389089 8.44558092,16.1060847 8.73296034,16.3934641 C9.02033976,16.6808435 9.48751554,16.6808435 9.77489496,16.3934641 L14.5542358,11.6141233 C14.6986624,11.4696967 14.7708757,11.2795841 14.7694019,11.0909453 C14.7694019,10.9008328 14.6986624,10.712194 14.5542358,10.5677674 L14.5542358,10.5677674 Z M11.144,0.144 C5.06924116,0.144 0.144,5.06924116 0.144,11.144 C0.144,17.2187588 5.06924116,22.144 11.144,22.144 C17.2187588,22.144 22.144,17.2187588 22.144,11.144 C22.144,5.06924116 17.2187588,0.144 11.144,0.144 L11.144,0.144 Z M11.144,20.6702594 C5.89158842,20.6702594 1.61774062,16.3964116 1.61774062,11.144 C1.61774062,5.89158842 5.89158842,1.61774062 11.144,1.61774062 C16.3964116,1.61774062 20.6702594,5.89158842 20.6702594,11.144 C20.6702594,16.3964116 16.3964116,20.6702594 11.144,20.6702594 L11.144,20.6702594 Z" id="Shape" fill="#0A4B82" sketch:type="MSShapeGroup"></path>
    </g>
</svg>

<svg width="23" height="23" xmlns="http://www.w3.org/2000/svg"><path d="M14.554 10.568l-4.78-4.78a.737.737 0 1 0-1.04 1.042l4.26 4.26-4.26 4.262a.737.737 0 1 0 1.04 1.04l4.78-4.778a.73.73 0 0 0 .215-.523c0-.19-.07-.377-.217-.52zM11.144.144c-6.075 0-11 4.925-11 11s4.925 11 11 11 11-4.925 11-11-4.925-11-11-11zm0 20.526c-5.252 0-9.526-4.274-9.526-9.526s4.274-9.526 9.526-9.526 9.526 4.274 9.526 9.526-4.274 9.526-9.526 9.526z" fill="#0A4B82" fill-rule="evenodd"/></svg>
